neru-light-classic/22x22/panel/both-low-signal-lock.svg

<?xml version="1.0" encoding="UTF-8" standalone="no"?>
<svg
   xmlns:dc="http://purl.org/dc/elements/1.1/"
   xmlns:cc="http://creativecommons.org/ns#"
   xmlns:rdf="http://www.w3.org/1999/02/22-rdf-syntax-ns#"
   xmlns:svg="http://www.w3.org/2000/svg"
   xmlns="http://www.w3.org/2000/svg"
   xmlns:sodipodi="http://sodipodi.sourceforge.net/DTD/sodipodi-0.dtd"
   xmlns:inkscape="http://www.inkscape.org/namespaces/inkscape"
   width="22"
   height="22"
   version="1.1"
   id="svg11"
   sodipodi:docname="both-low-signal-lock.svg"
   inkscape:version="0.92.4 5da689c313, 2019-01-14">
  <metadata
     id="metadata15">
    <rdf:RDF>
      <cc:Work
         rdf:about="">
        <dc:format>image/svg+xml</dc:format>
        <dc:type
           rdf:resource="http://purl.org/dc/dcmitype/StillImage" />
      </cc:Work>
    </rdf:RDF>
  </metadata>
  <sodipodi:namedview
     pagecolor="#ffffff"
     bordercolor="#666666"
     borderopacity="1"
     objecttolerance="10"
     gridtolerance="10"
     guidetolerance="10"
     inkscape:pageopacity="0"
     inkscape:pageshadow="2"
     inkscape:window-width="640"
     inkscape:window-height="515"
     id="namedview13"
     showgrid="false"
     inkscape:zoom="10.727273"
     inkscape:cx="11"
     inkscape:cy="11"
     inkscape:window-x="0"
     inkscape:window-y="28"
     inkscape:window-maximized="0"
     inkscape:current-layer="svg11" />
  <defs
     id="defs3">
    <style
       id="current-color-scheme"
       type="text/css">
   .ColorScheme-Text { color:#1e333d; } .ColorScheme-Highlight { color:#3fb7ff; }
  </style>
  </defs>
  <path
     style="opacity:0.3;fill:#1e333d;fill-opacity:1"
     class="ColorScheme-Text"
     d="M 11.029297 5 L 11.03125 5.0019531 C 7.9968499 5.0019531 5.2653 6.27132 3 8.015625 L 11.03125 17 L 12 15.904297 L 12 14 L 13.013672 14 C 13.03332 12.365273 14.356097 11 16 11 C 16.105061 11 16.204459 11.020383 16.306641 11.03125 L 19 7.984375 C 16.742 6.2628155 14.040297 5 11.029297 5 z"
     id="path5" />
  <path
     style="fill:#1e333d;fill-opacity:1"
     class="ColorScheme-Text"
     d="M 11 10 C 8 10 6.0996094 11.5 6.0996094 11.5 L 11 17 L 12 15.876953 L 12 14 L 13.013672 14 C 13.030229 12.622427 13.976169 11.446536 15.255859 11.107422 C 14.477605 10.663115 13.020272 10 11 10 z"
     id="path7" />
  <path
     style="fill:#1e333d;fill-opacity:1"
     class="ColorScheme-Text"
     d="m 16,12 c -1.108,0 -2,0.911 -2,2.031 l 0,0.969 -1,0 0,4 6,0 0,-4 -1,0 0,-0.969 C 18,12.911 17.108,12 16,12 Z m 0,1 c 0.554,0 1,0.442 1,1 l 0,1 -2,0 0,-1 c 0,-0.558 0.446,-1 1,-1 z"
     id="path9" />
</svg>

<svg xmlns="http://www.w3.org/2000/svg" width="22" height="22" version="1.1" id="svg11"><defs id="defs3"><style id="current-color-scheme" type="text/css">.ColorScheme-Text{color:#1e333d}</style></defs><path class="ColorScheme-Text" d="M11.03 5l.001.002c-3.034 0-5.766 1.27-8.031 3.014L11.031 17 12 15.904V14h1.014c.02-1.635 1.342-3 2.986-3 .105 0 .204.02.307.031L19 7.984C16.742 6.263 14.04 5 11.03 5z" id="path5" opacity=".3" fill="#1e333d" fill-opacity="1"/><path class="ColorScheme-Text" d="M11 10c-3 0-4.9 1.5-4.9 1.5L11 17l1-1.123V14h1.014a3.038 3.038 0 0 1 2.242-2.893A8.528 8.528 0 0 0 11 10z" id="path7" fill="#1e333d" fill-opacity="1"/><path class="ColorScheme-Text" d="M16 12c-1.108 0-2 .911-2 2.031V15h-1v4h6v-4h-1v-.969c0-1.12-.892-2.031-2-2.031zm0 1c.554 0 1 .442 1 1v1h-2v-1c0-.558.446-1 1-1z" id="path9" fill="#1e333d" fill-opacity="1"/></svg>
